X:222
T:Matt Peoples'
Z: id:dc-reel-203
M:C
L:1/8
K:A Dorian
A2eA BAeA|Bdgd BAGB|A2eA BAeA|BAGB A4:|!
a2ea agef|gBB2 g3g|a2ea aged|BAGA BAA2|!
a2ea agef|gBB2 g3g|afge fded|BAGA BAA2|]!

